X:40
T:De la Sissonne. [FJ40]
% lovely!
S:Festin joyeux.  Music page 20.
Z:transcribed by Eric Conrad, 2021.
N:NB The meter is given simply as "2"
N:NB In the MS, the G is the bottom line of the staff
N:NB Repeat marks were added at beginning and end.
N:NB The MS repeat mark is 4 vertical dots enclosed by bars on both sides.
N:NB The plus signs seem to indicate some kind of roll or trill.
N:NB1 Key signature changed from D Dorian to D minor.
N:NB2 Explicit B-flat in MS, implied by key signature here.
M:2/2
L:1/4
% K:Dmin clef=treble1 % staff GBdfa
K:Dmin % no accidentals in sig and end D (D Dorian), no seventh + some raised sixths suggest gapped D medodic minor
|: "_NB1"A | d^c de | f2 fg/f/ | "^+"ed e^c | d3 ::
f/g/ | aa a2 | "_NB2"b/a/g/f/ ee/f/ | gg g2 |
a/g/f/e/ df | ed e^c | d3 :|

